x-pack/solutions/security/plugins/cloud_security_posture/public/assets/illustrations/misconfigurations_vendors.svg

<svg width="376" height="209" viewBox="0 0 324 209" fill="none" xmlns="http://www.w3.org/2000/svg">
<rect x="27.7651" y="65" width="78" height="78" rx="11.779" fill="#F1F4FA"/>
<g clip-path="url(#clip0_1121_6209)">
    <mask id="mask0_1121_6209" style="mask-type:luminance" maskUnits="userSpaceOnUse" x="32" y="81" width="67" height="66">
        <path d="M32.4419 81.2845H98.3223V146.711H32.4419V81.2845Z" fill="white"/>
    </mask>
    <g mask="url(#mask0_1121_6209)">
        <path d="M71.5229 112.444V90.8051L83.0286 112.444H71.5229Z" fill="#98A2B3"/>
        <path d="M71.5171 90.8044L60.0115 112.443H71.5171V128.017L47.7354 104.651L71.5171 81.2845V90.8044Z" fill="#98A2B3"/>
    </g>
</g>
<rect x="110.958" y="52.9577" width="102.085" height="102.085" rx="15.3127" fill="#F1F4FA"/>
<path d="M164.146 107.69C164.227 107.854 164.47 107.854 164.47 107.69L170.148 92.7778C170.392 92.0404 171.122 91.6307 171.852 91.6307H177.124C178.098 91.6307 178.99 92.4501 178.99 93.4333C178.99 93.6791 178.99 93.843 178.909 94.0888L166.092 128.912C166.092 128.994 165.687 129.322 165.362 129.568C165.281 129.65 165.119 129.65 164.957 129.65C164.47 129.486 163.983 129.076 163.821 128.585L157.007 111.951C156.764 111.46 156.196 111.214 155.709 111.46C155.547 111.542 155.304 111.705 155.223 111.951L146.624 129.24C146.543 129.322 146.462 129.404 146.381 129.322C146.3 129.322 146.3 129.24 146.3 129.24L132.915 94.0069C132.591 93.0236 132.996 91.9584 133.97 91.6307C134.213 91.5488 134.375 91.4668 134.619 91.4668H140.378C141.108 91.4668 141.838 91.9584 142.082 92.6139L147.76 107.609C147.841 107.772 148.084 107.772 148.084 107.609L155.223 91.9584C155.466 91.4668 156.034 91.221 156.52 91.4668C156.764 91.5488 156.926 91.7126 157.007 91.9584L164.146 107.69ZM186.995 77.3746C186.914 77.1288 186.508 77.1288 186.427 77.3746C186.103 79.0134 185.373 81.4715 184.075 82.7825C182.777 84.0935 180.343 84.831 178.721 85.1587C178.478 85.2406 178.478 85.6503 178.721 85.7323C180.343 86.06 182.777 86.7975 184.075 88.1085C185.778 89.8291 186.346 92.2053 186.59 93.5983C186.59 93.6802 186.914 93.6802 186.914 93.5983C187.238 92.1234 187.887 89.5014 189.266 88.1085C190.564 86.7975 192.998 86.06 194.62 85.7323C194.864 85.6503 194.864 85.2406 194.62 85.1587C192.998 84.831 190.564 84.0935 189.266 82.7825C188.05 81.4715 187.32 79.0134 186.995 77.3746Z" fill="#325FE8"/>
<rect x="218.235" y="65" width="78" height="78" rx="11.779" fill="#F1F4FA"/>
<g clip-path="url(#clip1_1121_6209)">
    <path d="M260.18 80.4417H253.839V118.355H260.18V80.4417Z" fill="#98A2B3"/>
    <path fill-rule="evenodd" clip-rule="evenodd" d="M261.716 127.498L268.052 123.572V90.7476C266.174 89.3547 264.01 88.3959 261.716 87.9403V127.498Z" fill="#98A2B3"/>
    <path fill-rule="evenodd" clip-rule="evenodd" d="M245.947 123.592L252.288 127.518V87.9605C249.994 88.4093 247.829 89.3614 245.947 90.7482V123.592Z" fill="#98A2B3"/>
    <path fill-rule="evenodd" clip-rule="evenodd" d="M269.588 82.5006V123.143L272.533 121.317C273.588 120.624 274.45 119.675 275.041 118.56C275.632 117.445 275.933 116.199 275.915 114.937V95.7422C275.929 90.206 269.588 82.5006 269.588 82.5006Z" fill="#98A2B3"/>
    <path fill-rule="evenodd" clip-rule="evenodd" d="M238.094 114.665C238.075 115.927 238.375 117.174 238.966 118.289C239.557 119.405 240.42 120.353 241.476 121.045L244.42 122.871V82.2432C244.42 82.2432 238.094 89.9486 238.094 95.4847V114.665Z" fill="#98A2B3"/>
</g>
<defs>
    <clipPath id="clip0_1121_6209">
        <rect width="37.646" height="46.7329" fill="white" transform="translate(46.5591 81.2834)"/>
    </clipPath>
    <clipPath id="clip1_1121_6209">
        <rect width="47.116" height="47.116" fill="white" transform="translate(233.677 80.442)"/>
    </clipPath>
</defs>
</svg>

<svg xmlns="http://www.w3.org/2000/svg" width="376" height="209" fill="none" viewBox="0 0 324 209"><rect width="78" height="78" x="27.765" y="65" fill="#F1F4FA" rx="11.779"/><g clip-path="url(#a)"><mask id="b" width="67" height="66" x="32" y="81" maskUnits="userSpaceOnUse" style="mask-type:luminance"><path fill="#fff" d="M32.442 81.285h65.88v65.426h-65.88z"/></mask><g fill="#98A2B3" mask="url(#b)"><path d="M71.523 112.444V90.805l11.506 21.639zM71.517 90.804l-11.505 21.639h11.505v15.574l-23.782-23.366 23.782-23.367z"/></g></g><rect width="102.085" height="102.085" x="110.958" y="52.958" fill="#F1F4FA" rx="15.313"/><path fill="#325FE8" d="M164.146 107.69c.081.164.324.164.324 0l5.678-14.912c.244-.738.974-1.147 1.704-1.147h5.272c.974 0 1.866.82 1.866 1.802 0 .246 0 .41-.081.656l-12.817 34.823c0 .082-.405.41-.73.656-.081.082-.243.082-.405.082-.487-.164-.974-.574-1.136-1.065l-6.814-16.634c-.243-.491-.811-.737-1.298-.491-.162.082-.405.245-.486.491l-8.599 17.289c-.081.082-.162.164-.243.082-.081 0-.081-.082-.081-.082l-13.385-35.233c-.324-.983.081-2.049 1.055-2.376.243-.082.405-.164.649-.164h5.759c.73 0 1.46.491 1.704 1.147l5.678 14.995c.081.163.324.163.324 0l7.139-15.65c.243-.492.811-.738 1.297-.492a.73.73 0 0 1 .487.491zm22.849-30.315c-.081-.246-.487-.246-.568 0-.324 1.638-1.054 4.097-2.352 5.407-1.298 1.312-3.732 2.049-5.354 2.377-.243.082-.243.491 0 .573 1.622.328 4.056 1.066 5.354 2.377 1.703 1.72 2.271 4.096 2.515 5.49 0 .081.324.081.324 0 .324-1.476.973-4.098 2.352-5.49 1.298-1.311 3.732-2.049 5.354-2.377.244-.082.244-.491 0-.573-1.622-.328-4.056-1.065-5.354-2.377-1.216-1.31-1.946-3.769-2.271-5.407"/><rect width="78" height="78" x="218.235" y="65" fill="#F1F4FA" rx="11.779"/><g fill="#98A2B3" clip-path="url(#c)"><path d="M260.18 80.442h-6.341v37.913h6.341z"/><path fill-rule="evenodd" d="m261.716 127.498 6.336-3.926V90.748a15.8 15.8 0 0 0-6.336-2.808zM245.947 123.592l6.341 3.926V87.96a15.8 15.8 0 0 0-6.341 2.788zM269.588 82.5v40.643l2.945-1.826a7.508 7.508 0 0 0 3.382-6.38V95.742c.014-5.536-6.327-13.241-6.327-13.241M238.094 114.665a7.5 7.5 0 0 0 3.382 6.38l2.944 1.826V82.243s-6.326 7.706-6.326 13.242z" clip-rule="evenodd"/></g><defs><clipPath id="a"><path fill="#fff" d="M46.56 81.283h37.645v46.733H46.56z"/></clipPath><clipPath id="c"><path fill="#fff" d="M233.677 80.442h47.116v47.116h-47.116z"/></clipPath></defs></svg>
